X:141
T:Rainforest
C:Mike Stangeland
N:From "The Face of Ralph" The Mandolin Band, 1989 
L:1/8
Q:1/4=73
M:12/8
K:Eb
z6 "Fm"C/F/c/a3/2 z3 | D/G/d/b3/2 z3 "Cm7"C/G/e/b3/2 z3 | D/G/d/=b3/2 z7/1GB | 
"Dm7"=A4zd/f/ "Dm6"=a3/2f2z/d2 | "C#dim"_d3 =d/=e/=ae/d/ "A"_d=A3AB | "Cm7"G4ce "Cm6"g3/2e3c3/2 | 
"Bdim"=B3 c/d/g/d/c/B/ "G"G4GA | "Fm"F4GA "Bdim"D4GA | "Fm"F3 "(Fm7)"dc/4d/4c/A "Bdim"G4GA | 
"Fm"F4GA "Gm"D2G, "Gm7"GFE/4F/4E/ | "Cm7"C3 D/E/F/G/B/c/ "G"d6 | "Dm7"=A/A/A/A/A2df "Dm6"=a2f/f/ f/f/f/d/d/d/ | 
"C#dim"_d/d/d2 =d/=e/=ae/d/ "A"_d=A3AB | G4ce "Cm6"g2e2ce | "Bdim"=B3 c/d/g/d/c/B/ "G"G4GA | 
"Fm"F7/2c/dd "Bdim"d3/2c2z/[c2A2] | "Fm"[c4G4]GA "Bdim"D4GA | "Fm"F4GA "Gm"D2G, "Gm7"GFE/4F/4E/ | 
"Cm7"C3 C/D/E/F/G/B/ "Cm6"=A4[dDG,][cDG,] | "G"[=B4D4G,4]cd "Bdim"g3/2d2z/cB | 
{=B}"Cm7"c2{B}c {B}c_BG/F/ "G"G4dc | "G"=B2B/c/ dgd "Bdim"cB/4c/4B/G Bcd | "Cm7"c3 e/d/cA "G"G4[dD][cDG,] | 
"G"[=BDG,]G,/=B,/D/G/ B/d/g3"Bdim"d3cB | {=B}c3 {_B}cBG/F/ G4"G7"GA | "Fm"F4GA "Bdim"D4GA | 
"Fm"F3 "(Fm7)"dc/4d/4c/A "Bdim"G4GA | "Fm"F4GA "Gm"D2G, "Gm7"GFE/4F/4E/ | "Cm7"C3 D/E/F/G/B/c/ d6 | 


